assets/images/piquaboo-go.svg

<?xml version="1.0" encoding="UTF-8"?>
<!DOCTYPE svg  PUBLIC '-//W3C//DTD SVG 1.1//EN'  'http://www.w3.org/Graphics/SVG/1.1/DTD/svg11.dtd'>
<svg clip-rule="evenodd" fill-rule="evenodd" stroke-linecap="round" stroke-linejoin="round" stroke-miterlimit="1.5" version="1.1" viewBox="0 0 100 100" xml:space="preserve" xmlns="http://www.w3.org/2000/svg">
    <g transform="matrix(1.0432 0 0 1.0609 -2.304 -1.8443)">
        <path d="m95.666 8.572c0-2.471-2.04-4.477-4.553-4.477h-81.955c-2.513 0-4.553 2.006-4.553 4.477v80.593c0 2.471 2.04 4.477 4.553 4.477h81.955c2.513 0 4.553-2.006 4.553-4.477v-80.593z" fill="none" stroke="#000" stroke-width=".79px"/>
    </g>
    <g transform="matrix(.20603 0 0 .20603 39.698 39.698)">
        <g transform="translate(-168.41 -58.04)">
            <path d="m252.98 43.369c-1.239 3.962-3.375 7.312-6.097 10.185h0.184s-0.167 0.109-0.427 0.276c-6.014 6.207-14.75 10.026-22.949 12.405-0.444 0.209-0.88 0.427-1.324 0.636-2.445 1.097-5.326 0.821-7.739-0.285-0.142-0.058-0.268-0.125-0.41-0.192-10.712-3.208-21.76-8.46-27.707-18.351-2.973-4.9-3.4-12.957 2.404-15.972 7.186-4.473 16.266 0.251 20.445 6.7 2.722 4.54 4.213 9.59 5 14.783h8.971c0.686-4.724 1.901-9.322 4.213-13.552 3.3-6.055 10.218-10.67 17.304-9.481 5.812 0.796 10.268 7.211 8.132 12.848m7.505 2.965c0.042-4.623 1.147-9.724-1.374-13.92-3.869-7.404-13.208-11.324-21.232-9.088-8.903 1.935-15.788 9.071-19.071 17.363-3.124-8.007-9.641-14.925-18.125-17.136-8.325-2.63-18.493 1.147-22.321 9.171-2.421 4.137-1.432 9.037-1.432 13.585-8.929-4.757-18.041-9.104-27.079-13.661 21.517-10.695 42.976-21.491 64.484-32.179 2.697-1.449 5.947-1.491 8.635 9e-3 21.526 10.712 43.018 21.5 64.543 32.229-8.987 4.565-18.1 8.903-27.028 13.627m29.8 196.49c-21.776 10.721-43.469 21.6-65.137 32.522-3.417 1.918-7.622 3.183-11.257 1.047-22.43-11.106-44.742-22.413-67.181-33.502 0-18.72 3.342-112.64 3.317-131.36h0.193l-0.143-0.075c5.696-2.898 26.995-14.138 44.098-23.184 2.094-1.298 4.632-2.839 6.374-3.727 4.062-1.926 7.999-4.062 12.044-6.014 1.349-0.711 2.454-1.298 3.241-1.717l0.31 0.134c2.228-0.67 4.707-0.343 6.826 0.62 5.26 2.421 10.328 5.243 15.562 7.723 2.22 1.155 5.83 3.609 7.446 4.732 10.244 5.394 33.318 17.22 41.753 21.492-0.243 0.109-0.478 0.234-0.729 0.36 0 19.44 3.359 112.36 3.283 130.94m79.435-153.44c-0.034 11.918 0.335 106.87-0.285 111.3-0.528 2.798-3.334 4.129-5.595 5.369-21.969 10.829-43.838 21.869-65.774 32.799-8e-3 -14.247 9e-3 -93.179 0-130.72l-41.074-22.254c-2.663-1.215-5.452-2.404-7.555-3.091 7.79-0.511 15.546-1.365 23.151-3.124 6.608-1.976 13.082-4.472 19.13-7.839-1.709-1.893-3.46-3.769-5.202-5.637-7.881 3.92-16.341 6.524-24.984 8.015-7.404 0.486-14.875 0.771-22.212-0.402-2.614-0.502-5.21-1.089-7.773-1.817 7.898-3.242 15.085-7.806 21.475-13.426 14.113-7.538 28.611-14.406 42.917-21.609 23.552 11.742 47.317 24.264 70.777 36.166 1.639 1.261 2.417 2.834 2.573 5.531 0.454 7.864 0.431 10.734 0.431 10.734zm-193.86-15.168c-8.736-1.424-17.288-4.046-25.203-8.083-1.75 1.943-3.484 3.903-5.159 5.897 6.148 3.099 12.53 5.737 19.155 7.647 7.622 1.792 15.394 2.579 23.192 3.115-6.508 2.144-18.862 7.245-18.862 7.245l-30.01 17.095c-8e-3 39.114 0.042 117.78-0.025 131.8-22.053-10.888-43.972-22.019-66.025-32.874-2.538-1.307-5.636-2.915-5.913-6.106-0.536-4.389 0.687-116 0.653-120.4 0.478-3.568 1.851-7.036 5.177-8.434 22.915-11.366 45.739-22.891 68.654-34.223 14.331 7.195 28.838 14.096 42.993 21.617 6.591 5.855 14.154 10.361 22.212 13.879-10.177 1.784-20.504 2.982-30.839 1.826" fill-rule="nonzero"/>
        </g>
        <g transform="translate(-168.41 -446.14)">
            <path d="m220.33 328.58c0-1.064-0.863-1.918-1.918-1.918-1.056 0-1.918 0.854-1.918 1.918v8.434c0 1.064 0.862 1.918 1.918 1.918 1.055 0 1.918-0.854 1.918-1.918v-8.434z" fill-rule="nonzero"/>
        </g>
        <g transform="translate(-168.41 -403.36)">
            <path d="m220.33 305.25c0-1.064-0.863-1.918-1.918-1.918-1.056 0-1.918 0.854-1.918 1.918v14.255c0.636-8e-3 1.281-0.017 1.918-0.017 0.645 0 1.281 9e-3 1.918 0.017v-14.255z" fill-rule="nonzero"/>
        </g>
        <g transform="translate(-168.41 -290.89)">
            <path d="m348.99 261.97 10.126-10.126c0.746-0.754 0.746-1.96 0-2.714-0.753-0.746-1.968-0.746-2.713 0l-10.126 10.126c0.443 0.444 0.904 0.879 1.348 1.332 0.461 0.46 0.913 0.913 1.365 1.382" fill-rule="nonzero"/>
        </g>
        <g transform="translate(-168.41 -321.79)">
            <path d="m364.18 272.25c-0.753 0.754-0.753 1.968 0 2.713 0.746 0.754 1.96 0.754 2.714 0l5.964-5.963c0.745-0.754 0.745-1.96 0-2.714-0.754-0.745-1.96-0.745-2.714 0l-5.964 5.964z" fill-rule="nonzero"/>
        </g>
        <g transform="translate(-168.41 -21.588)">
            <path d="m1.918 118.61c-1.064 0-1.918 0.871-1.918 1.918 0 1.064 0.854 1.927 1.918 1.927h8.434c1.064 0 1.918-0.863 1.918-1.927 0-1.047-0.854-1.918-1.918-1.918h-8.434z" fill-rule="nonzero"/>
        </g>
        <g transform="translate(-168.41 -21.588)">
            <path d="m21.352 118.61c-1.064 0-1.918 0.871-1.918 1.918 0 1.064 0.854 1.927 1.918 1.927h14.347c-8e-3 -0.637-0.016-1.274-0.016-1.927 0-0.636 8e-3 -1.281 0.016-1.918h-14.347z" fill-rule="nonzero"/>
        </g>
        <g transform="translate(-168.41 -21.59)">
            <path d="m401.12 122.45h14.356c1.055 0 1.91-0.863 1.91-1.918 0-1.056-0.855-1.927-1.91-1.927h-14.356c8e-3 0.637 0.017 1.282 0.017 1.927s-9e-3 1.281-0.017 1.918" fill-rule="nonzero"/>
        </g>
        <g transform="translate(-168.41 -21.588)">
            <path d="m426.47 118.61c-1.055 0-1.918 0.871-1.918 1.918 0 1.064 0.863 1.927 1.918 1.927h8.434c1.064 0 1.918-0.863 1.918-1.927 0-1.047-0.854-1.918-1.918-1.918h-8.434z" fill-rule="nonzero"/>
        </g>
        <g transform="translate(-168.41 -321.8)">
            <path d="m66.682 266.29c-0.746-0.754-1.96-0.754-2.714 0-0.745 0.754-0.745 1.96 0 2.714l5.972 5.963c0.745 0.754 1.96 0.754 2.713 0 0.746-0.745 0.746-1.96 0-2.713l-5.971-5.964z" fill-rule="nonzero"/>
        </g>
        <g transform="translate(-168.41 -290.92)">
            <path d="m80.431 249.16c-0.754-0.745-1.968-0.745-2.714 0-0.753 0.754-0.753 1.96 0 2.714l10.101 10.101c0.461-0.461 0.905-0.921 1.374-1.39 0.444-0.436 0.888-0.88 1.332-1.324l-10.093-10.101z" fill-rule="nonzero"/>
        </g>
        <g transform="translate(-168.41 -95.828)">
            <path d="m411.78 158.26c1.038-0.201 1.717-1.214 1.524-2.253-0.209-1.039-1.214-1.717-2.253-1.508l-13.761 2.731c0.26 1.248 0.502 2.513 0.737 3.769l13.753-2.739z" fill-rule="nonzero"/>
        </g>
        <g transform="translate(-168.41 52.664)">
            <path d="m38.798 80.048-13.752 2.738c-1.039 0.201-1.717 1.215-1.508 2.253 0.193 1.039 1.206 1.717 2.245 1.508l13.769-2.73c-0.268-1.248-0.511-2.513-0.754-3.769" fill-rule="nonzero"/>
        </g>
        <g transform="translate(-168.41 -233.04)">
            <path d="m67.508 228.85-11.643-7.781c-0.879-0.586-2.068-0.352-2.655 0.528-0.586 0.879-0.351 2.069 0.52 2.655l11.65 7.781c0.695-1.072 1.407-2.128 2.128-3.183" fill-rule="nonzero"/>
        </g>
        <g transform="translate(-168.41 -395.61)">
            <path d="m184.63 314.86-2.722-13.669c-0.201-1.039-1.214-1.717-2.253-1.508-1.039 0.193-1.717 1.206-1.508 2.237l2.722 13.685c1.24-0.259 2.505-0.51 3.761-0.745" fill-rule="nonzero"/>
        </g>
        <g transform="translate(-168.41 -338.29)">
            <path d="m321.55 286.32 7.781-11.642c0.586-0.871 0.352-2.061-0.528-2.647-0.871-0.595-2.068-0.36-2.655 0.519l-7.772 11.634c1.064 0.704 2.127 1.415 3.174 2.136" fill-rule="nonzero"/>
        </g>
        <g transform="translate(-168.41 -233.03)">
            <path d="m371.43 232.03 11.667-7.798c0.88-0.586 1.114-1.775 0.528-2.655-0.586-0.879-1.784-1.114-2.655-0.527l-11.667 7.797c0.72 1.047 1.432 2.111 2.127 3.183" fill-rule="nonzero"/>
        </g>
        <g transform="translate(-168.41 52.661)">
            <path d="m411.05 86.553c1.038 0.201 2.044-0.477 2.253-1.516 0.193-1.039-0.486-2.052-1.524-2.245l-13.762-2.738c-0.226 1.256-0.477 2.512-0.745 3.769l13.778 2.73z" fill-rule="nonzero"/>
        </g>
        <g transform="translate(-168.41 -95.83)">
            <path d="m39.542 157.24-13.761-2.73c-1.039-0.21-2.052 0.469-2.245 1.507-0.209 1.047 0.478 2.052 1.516 2.253l13.745 2.739c0.234-1.265 0.486-2.521 0.745-3.769" fill-rule="nonzero"/>
        </g>
        <g transform="translate(-168.41 -338.32)">
            <path d="m118.44 284.2-7.764-11.617c-0.586-0.879-1.775-1.122-2.646-0.519-0.888 0.578-1.114 1.775-0.528 2.647l7.764 11.617c1.047-0.721 2.111-1.433 3.174-2.128" fill-rule="nonzero"/>
        </g>
        <g transform="translate(-168.41 -395.61)">
            <path d="m255.97 315.61 2.714-13.694c0.209-1.03-0.469-2.044-1.508-2.236-1.038-0.21-2.052 0.469-2.253 1.507l-2.713 13.678c1.256 0.226 2.512 0.485 3.76 0.745" fill-rule="nonzero"/>
        </g>
        <g transform="translate(-168.41 -291.96)">
            <path d="m144.75 208.07c-0.402-0.98-1.516-1.441-2.496-1.039-0.971 0.402-1.449 1.524-1.038 2.496l5.452 13.175c1.173-0.503 2.354-0.988 3.535-1.466l-5.453-13.166zm-7.421-17.924c-0.402-0.972-1.515-1.441-2.495-1.039s-1.441 1.525-1.047 2.496l3.216 7.764c0.402 0.972 1.524 1.441 2.496 1.039 0.98-0.402 1.449-1.524 1.047-2.504l-3.217-7.756zm-100.29 123.55c-0.98-0.402-2.094 0.067-2.496 1.047-0.402 0.979 0.067 2.093 1.047 2.495l13.217 5.478c0.477-1.181 0.963-2.362 1.465-3.534l-13.233-5.486zm-17.916-7.413c-0.979-0.402-2.102 0.059-2.504 1.039s0.067 2.094 1.047 2.496l7.756 3.208c0.971 0.402 2.094-0.067 2.496-1.039 0.402-0.98-0.067-2.102-1.039-2.504l-7.756-3.2zm390.82 3.2c-0.979 0.41-1.448 1.524-1.046 2.504s1.524 1.441 2.504 1.039l7.756-3.208c0.971-0.402 1.44-1.516 1.038-2.496s-1.524-1.441-2.496-1.039l-7.756 3.2zm-21.944 13.233 13.234-5.478c0.971-0.402 1.449-1.516 1.038-2.495-0.402-0.98-1.516-1.449-2.496-1.047l-13.241 5.494c0.502 1.164 0.988 2.345 1.465 3.526m-91.721-124.81c-0.41 0.98 0.067 2.102 1.039 2.504 0.979 0.402 2.093-0.067 2.504-1.039l3.199-7.764c0.402-0.971-0.058-2.094-1.038-2.496s-2.094 0.067-2.496 1.039l-3.208 7.756zm-6.139 24.817 5.469-13.192c0.402-0.972-0.067-2.094-1.039-2.496-0.98-0.402-2.102 0.059-2.504 1.039l-5.461 13.183c1.181 0.477 2.37 0.963 3.535 1.466" fill-rule="nonzero"/>
        </g>
    </g>
</svg>

<?xml version="1.0" encoding="UTF-8" standalone="no"?>
<!DOCTYPE svg PUBLIC "-//W3C//DTD SVG 1.1//EN" "http://www.w3.org/Graphics/SVG/1.1/DTD/svg11.dtd">
<svg width="100%" height="100%" viewBox="0 0 100 100" version="1.1" xmlns="http://www.w3.org/2000/svg" xmlns:xlink="http://www.w3.org/1999/xlink" xml:space="preserve" xmlns:serif="http://www.serif.com/" style="fill-rule:evenodd;clip-rule:evenodd;stroke-linecap:round;stroke-linejoin:round;stroke-miterlimit:1.5;">
    <g transform="matrix(1.04325,0,0,1.06089,-2.30403,-1.84431)">
        <path d="M95.666,8.572C95.666,6.101 93.626,4.095 91.113,4.095L9.158,4.095C6.645,4.095 4.605,6.101 4.605,8.572L4.605,89.165C4.605,91.636 6.645,93.642 9.158,93.642L91.113,93.642C93.626,93.642 95.666,91.636 95.666,89.165L95.666,8.572Z" style="fill:none;stroke:black;stroke-width:0.79px;"/>
    </g>
    <g id="Piquaboo" transform="matrix(0.206032,0,0,0.206032,39.6984,39.6984)">
        <g transform="matrix(1,0,0,1,-168.412,-58.04)">
            <path d="M252.975,43.369C251.736,47.331 249.6,50.681 246.878,53.554L247.062,53.554C247.062,53.554 246.895,53.663 246.635,53.83C240.621,60.037 231.885,63.856 223.686,66.235C223.242,66.444 222.806,66.662 222.362,66.871C219.917,67.968 217.036,67.692 214.623,66.586C214.481,66.528 214.355,66.461 214.213,66.394C203.501,63.186 192.453,57.934 186.506,48.043C183.533,43.143 183.106,35.086 188.91,32.071C196.096,27.598 205.176,32.322 209.355,38.771C212.077,43.311 213.568,48.361 214.355,53.554L223.326,53.554C224.012,48.83 225.227,44.232 227.539,40.002C230.839,33.947 237.757,29.332 244.843,30.521C250.655,31.317 255.111,37.732 252.975,43.369M260.48,46.334C260.522,41.711 261.627,36.61 259.106,32.414C255.237,25.01 245.898,21.09 237.874,23.326C228.971,25.261 222.086,32.397 218.803,40.689C215.679,32.682 209.162,25.764 200.678,23.553C192.353,20.923 182.185,24.7 178.357,32.724C175.936,36.861 176.925,41.761 176.925,46.309C167.996,41.552 158.884,37.205 149.846,32.648C171.363,21.953 192.822,11.157 214.33,0.469C217.027,-0.98 220.277,-1.022 222.965,0.478C244.491,11.19 265.983,21.978 287.508,32.707C278.521,37.272 269.408,41.61 260.48,46.334M290.28,242.826C268.504,253.547 246.811,264.426 225.143,275.348C221.726,277.266 217.521,278.531 213.886,276.395C191.456,265.289 169.144,253.982 146.705,242.893C146.705,224.173 150.047,130.258 150.022,111.538L150.215,111.538L150.072,111.463C155.768,108.565 177.067,97.325 194.17,88.279C196.264,86.981 198.802,85.44 200.544,84.552C204.606,82.626 208.543,80.49 212.588,78.538C213.937,77.827 215.042,77.24 215.829,76.821L216.139,76.955C218.367,76.285 220.846,76.612 222.965,77.575C228.225,79.996 233.293,82.818 238.527,85.298C240.747,86.453 244.357,88.907 245.973,90.03C256.217,95.424 279.291,107.25 287.726,111.522C287.483,111.631 287.248,111.756 286.997,111.882C286.997,131.322 290.356,224.24 290.28,242.826M369.715,89.385C369.681,101.303 370.05,196.257 369.43,200.688C368.902,203.486 366.096,204.817 363.835,206.057C341.866,216.886 319.997,227.926 298.061,238.856C298.053,224.609 298.07,145.677 298.061,108.138L256.987,85.884C254.324,84.669 251.535,83.48 249.432,82.793C257.222,82.282 264.978,81.428 272.583,79.669C279.191,77.693 285.665,75.197 291.713,71.83C290.004,69.937 288.253,68.061 286.511,66.193C278.63,70.113 270.17,72.717 261.527,74.208C254.123,74.694 246.652,74.979 239.315,73.806C236.701,73.304 234.105,72.717 231.542,71.989C239.44,68.747 246.627,64.183 253.017,58.563C267.13,51.025 281.628,44.157 295.934,36.954C319.486,48.696 343.251,61.218 366.711,73.12C368.35,74.381 369.128,75.954 369.284,78.651C369.738,86.515 369.715,89.385 369.715,89.385ZM175.853,74.217C167.117,72.793 158.565,70.171 150.65,66.134C148.9,68.077 147.166,70.037 145.491,72.031C151.639,75.13 158.021,77.768 164.646,79.678C172.268,81.47 180.04,82.257 187.838,82.793C181.33,84.937 168.976,90.038 168.976,90.038L138.966,107.133C138.958,146.247 139.008,224.91 138.941,238.931C116.888,228.043 94.969,216.912 72.916,206.057C70.378,204.75 67.28,203.142 67.003,199.951C66.467,195.562 67.69,83.949 67.656,79.552C68.134,75.984 69.507,72.516 72.833,71.118C95.748,59.752 118.572,48.227 141.487,36.895C155.818,44.09 170.325,50.991 184.48,58.512C191.071,64.367 198.634,68.873 206.692,72.391C196.515,74.175 186.188,75.373 175.853,74.217" style="fill-rule:nonzero;"/>
        </g>
        <g transform="matrix(1,0,0,1,-168.412,-446.136)">
            <path d="M220.33,328.585C220.33,327.521 219.467,326.667 218.412,326.667C217.356,326.667 216.494,327.521 216.494,328.585L216.494,337.019C216.494,338.083 217.356,338.937 218.412,338.937C219.467,338.937 220.33,338.083 220.33,337.019L220.33,328.585Z" style="fill-rule:nonzero;"/>
        </g>
        <g transform="matrix(1,0,0,1,-168.412,-403.365)">
            <path d="M220.33,305.248C220.33,304.184 219.467,303.33 218.412,303.33C217.356,303.33 216.494,304.184 216.494,305.248L216.494,319.503C217.13,319.495 217.775,319.486 218.412,319.486C219.057,319.486 219.693,319.495 220.33,319.503L220.33,305.248Z" style="fill-rule:nonzero;"/>
        </g>
        <g transform="matrix(1,0,0,1,-168.412,-290.894)">
            <path d="M348.99,261.974L359.116,251.848C359.862,251.094 359.862,249.888 359.116,249.134C358.363,248.388 357.148,248.388 356.403,249.134L346.277,259.26C346.72,259.704 347.181,260.139 347.625,260.592C348.086,261.052 348.538,261.505 348.99,261.974" style="fill-rule:nonzero;"/>
        </g>
        <g transform="matrix(1,0,0,1,-168.412,-321.79)">
            <path d="M364.179,272.25C363.426,273.004 363.426,274.218 364.179,274.963C364.925,275.717 366.139,275.717 366.893,274.963L372.857,269C373.602,268.246 373.602,267.04 372.857,266.286C372.103,265.541 370.897,265.541 370.143,266.286L364.179,272.25Z" style="fill-rule:nonzero;"/>
        </g>
        <g transform="matrix(1,0,0,1,-168.412,-21.5885)">
            <path d="M1.918,118.606C0.854,118.606 0,119.477 0,120.524C0,121.588 0.854,122.451 1.918,122.451L10.352,122.451C11.416,122.451 12.27,121.588 12.27,120.524C12.27,119.477 11.416,118.606 10.352,118.606L1.918,118.606Z" style="fill-rule:nonzero;"/>
        </g>
        <g transform="matrix(1,0,0,1,-168.412,-21.5885)">
            <path d="M21.352,118.606C20.288,118.606 19.434,119.477 19.434,120.524C19.434,121.588 20.288,122.451 21.352,122.451L35.699,122.451C35.691,121.814 35.683,121.177 35.683,120.524C35.683,119.888 35.691,119.243 35.699,118.606L21.352,118.606Z" style="fill-rule:nonzero;"/>
        </g>
        <g transform="matrix(1,0,0,1,-168.412,-21.5905)">
            <path d="M401.125,122.452L415.481,122.452C416.536,122.452 417.391,121.589 417.391,120.534C417.391,119.478 416.536,118.607 415.481,118.607L401.125,118.607C401.133,119.244 401.142,119.889 401.142,120.534C401.142,121.179 401.133,121.815 401.125,122.452" style="fill-rule:nonzero;"/>
        </g>
        <g transform="matrix(1,0,0,1,-168.412,-21.5885)">
            <path d="M426.473,118.606C425.418,118.606 424.555,119.477 424.555,120.524C424.555,121.588 425.418,122.451 426.473,122.451L434.907,122.451C435.971,122.451 436.825,121.588 436.825,120.524C436.825,119.477 435.971,118.606 434.907,118.606L426.473,118.606Z" style="fill-rule:nonzero;"/>
        </g>
        <g transform="matrix(1,0,0,1,-168.412,-321.797)">
            <path d="M66.682,266.294C65.936,265.54 64.722,265.54 63.968,266.294C63.223,267.048 63.223,268.254 63.968,269.008L69.94,274.971C70.685,275.725 71.9,275.725 72.653,274.971C73.399,274.226 73.399,273.011 72.653,272.258L66.682,266.294Z" style="fill-rule:nonzero;"/>
        </g>
        <g transform="matrix(1,0,0,1,-168.412,-290.922)">
            <path d="M80.431,249.16C79.677,248.415 78.463,248.415 77.717,249.16C76.964,249.914 76.964,251.12 77.717,251.874L87.818,261.975C88.279,261.514 88.723,261.054 89.192,260.585C89.636,260.149 90.08,259.705 90.524,259.261L80.431,249.16Z" style="fill-rule:nonzero;"/>
        </g>
        <g transform="matrix(1,0,0,1,-168.412,-95.8285)">
            <path d="M411.775,158.264C412.813,158.063 413.492,157.05 413.299,156.011C413.09,154.972 412.085,154.294 411.046,154.503L397.285,157.234C397.545,158.482 397.787,159.747 398.022,161.003L411.775,158.264Z" style="fill-rule:nonzero;"/>
        </g>
        <g transform="matrix(1,0,0,1,-168.412,52.6644)">
            <path d="M38.798,80.048L25.046,82.786C24.007,82.987 23.329,84.001 23.538,85.039C23.731,86.078 24.744,86.756 25.783,86.547L39.552,83.817C39.284,82.569 39.041,81.304 38.798,80.048" style="fill-rule:nonzero;"/>
        </g>
        <g transform="matrix(1,0,0,1,-168.412,-233.04)">
            <path d="M67.508,228.846L55.865,221.065C54.986,220.479 53.797,220.713 53.21,221.593C52.624,222.472 52.859,223.662 53.73,224.248L65.38,232.029C66.075,230.957 66.787,229.901 67.508,228.846" style="fill-rule:nonzero;"/>
        </g>
        <g transform="matrix(1,0,0,1,-168.412,-395.613)">
            <path d="M184.627,314.861L181.905,301.192C181.704,300.153 180.691,299.475 179.652,299.684C178.613,299.877 177.935,300.89 178.144,301.921L180.866,315.606C182.106,315.347 183.371,315.096 184.627,314.861" style="fill-rule:nonzero;"/>
        </g>
        <g transform="matrix(1,0,0,1,-168.412,-338.29)">
            <path d="M321.549,286.321L329.33,274.679C329.916,273.808 329.682,272.618 328.802,272.032C327.931,271.437 326.734,271.672 326.147,272.551L318.375,284.185C319.439,284.889 320.502,285.6 321.549,286.321" style="fill-rule:nonzero;"/>
        </g>
        <g transform="matrix(1,0,0,1,-168.412,-233.027)">
            <path d="M371.426,232.031L383.093,224.233C383.973,223.647 384.207,222.458 383.621,221.578C383.035,220.699 381.837,220.464 380.966,221.051L369.299,228.848C370.019,229.895 370.731,230.959 371.426,232.031" style="fill-rule:nonzero;"/>
        </g>
        <g transform="matrix(1,0,0,1,-168.412,52.661)">
            <path d="M411.047,86.553C412.085,86.754 413.091,86.076 413.3,85.037C413.493,83.998 412.814,82.985 411.776,82.792L398.014,80.054C397.788,81.31 397.537,82.566 397.269,83.823L411.047,86.553Z" style="fill-rule:nonzero;"/>
        </g>
        <g transform="matrix(1,0,0,1,-168.412,-95.8305)">
            <path d="M39.542,157.235L25.781,154.505C24.742,154.295 23.729,154.974 23.536,156.012C23.327,157.059 24.014,158.064 25.052,158.265L38.797,161.004C39.031,159.739 39.283,158.483 39.542,157.235" style="fill-rule:nonzero;"/>
        </g>
        <g transform="matrix(1,0,0,1,-168.412,-338.321)">
            <path d="M118.44,284.2L110.676,272.583C110.09,271.704 108.901,271.461 108.03,272.064C107.142,272.642 106.916,273.839 107.502,274.711L115.266,286.328C116.313,285.607 117.377,284.895 118.44,284.2" style="fill-rule:nonzero;"/>
        </g>
        <g transform="matrix(1,0,0,1,-168.412,-395.608)">
            <path d="M255.967,315.608L258.681,301.914C258.89,300.884 258.212,299.87 257.173,299.678C256.135,299.468 255.121,300.147 254.92,301.185L252.207,314.863C253.463,315.089 254.719,315.348 255.967,315.608" style="fill-rule:nonzero;"/>
        </g>
        <g transform="matrix(1,0,0,1,-168.412,-291.958)">
            <path d="M144.753,208.073C144.351,207.093 143.237,206.632 142.257,207.034C141.286,207.436 140.808,208.558 141.219,209.53L146.671,222.705C147.844,222.202 149.025,221.717 150.206,221.239L144.753,208.073ZM137.332,190.149C136.93,189.177 135.817,188.708 134.837,189.11C133.857,189.512 133.396,190.635 133.79,191.606L137.006,199.37C137.408,200.342 138.53,200.811 139.502,200.409C140.482,200.007 140.951,198.885 140.549,197.905L137.332,190.149ZM37.043,313.698C36.063,313.296 34.949,313.765 34.547,314.745C34.145,315.724 34.614,316.838 35.594,317.24L48.811,322.718C49.288,321.537 49.774,320.356 50.276,319.184L37.043,313.698ZM19.127,306.285C18.148,305.883 17.025,306.344 16.623,307.324C16.221,308.304 16.69,309.418 17.67,309.82L25.426,313.028C26.397,313.43 27.52,312.961 27.922,311.989C28.324,311.009 27.855,309.887 26.883,309.485L19.127,306.285ZM409.95,309.485C408.971,309.895 408.502,311.009 408.904,311.989C409.306,312.969 410.428,313.43 411.408,313.028L419.164,309.82C420.135,309.418 420.604,308.304 420.202,307.324C419.8,306.344 418.678,305.883 417.706,306.285L409.95,309.485ZM388.006,322.718L401.24,317.24C402.211,316.838 402.689,315.724 402.278,314.745C401.876,313.765 400.762,313.296 399.782,313.698L386.541,319.192C387.043,320.356 387.529,321.537 388.006,322.718M296.285,197.905C295.875,198.885 296.352,200.007 297.324,200.409C298.303,200.811 299.417,200.342 299.828,199.37L303.027,191.606C303.429,190.635 302.969,189.512 301.989,189.11C301.009,188.708 299.895,189.177 299.493,190.149L296.285,197.905ZM290.146,222.722L295.615,209.53C296.017,208.558 295.548,207.436 294.576,207.034C293.596,206.632 292.474,207.093 292.072,208.073L286.611,221.256C287.792,221.733 288.981,222.219 290.146,222.722" style="fill-rule:nonzero;"/>
        </g>
    </g>
</svg>
